build/assets/images/bg-b-full.svg

<svg width="824" height="1222" fill="none" xmlns="http://www.w3.org/2000/svg"><path d="M53 137v948h421.183c213.977 0 345.343-97.509 345.343-260.023 0-127.303-75.84-218.04-203.143-239.708C719.309 560.891 782.96 480.989 782.96 374c0-147.617-121.886-237-318.257-237H53zm159.806 142.2h243.771c101.572 0 162.514 43.337 162.514 123.24 0 79.903-60.942 127.303-162.514 127.303H212.806V279.2zm0 391.389h243.771c124.594 0 199.08 50.108 199.08 134.074 0 89.383-74.486 138.137-199.08 138.137H212.806V670.589z" fill="#132631" fill-opacity=".05"/></svg>

<svg width="824" height="1222" viewBox="0 0 824 1222" fill="none" xmlns="http://www.w3.org/2000/svg">
<path d="M53 137V1085H474.183C688.16 1085 819.526 987.491 819.526 824.977C819.526 697.674 743.686 606.937 616.383 585.269C719.309 560.891 782.96 480.989 782.96 374C782.96 226.383 661.074 137 464.703 137H53ZM212.806 279.2H456.577C558.149 279.2 619.091 322.537 619.091 402.44C619.091 482.343 558.149 529.743 456.577 529.743H212.806V279.2ZM212.806 670.589H456.577C581.171 670.589 655.657 720.697 655.657 804.663C655.657 894.046 581.171 942.8 456.577 942.8H212.806V670.589Z" fill="#132631" fill-opacity="0.05"/>
</svg>
